static/img/kroki/fdfabf8d6f90ba8b728eac0619838ba7.svg

<?xml version="1.0" encoding="us-ascii" standalone="no"?><svg xmlns="http://www.w3.org/2000/svg" xmlns:xlink="http://www.w3.org/1999/xlink" contentStyleType="text/css" height="451px" preserveAspectRatio="none" style="width:480px;height:451px;" version="1.1" viewBox="0 0 480 451" width="480px" zoomAndPan="magnify"><defs/><g><!--class aws_ec2_nat_gateway--><g id="elem_aws_ec2_nat_gateway"><rect codeLine="22" fill="#3D176E" height="39.7891" id="aws_ec2_nat_gateway" rx="2.5" ry="2.5" style="stroke:#000D19;stroke-width:0.5;" width="231" x="7" y="106.79"/><ellipse cx="22" cy="126.6845" fill="#ADD1B2" rx="11" ry="11" style="stroke:#181818;stroke-width:1.0;"/><path d="M24.9688,132.3252 Q24.3906,132.622 23.75,132.7627 Q23.1094,132.9189 22.4063,132.9189 Q19.9063,132.9189 18.5781,131.2783 Q17.2656,129.622 17.2656,126.497 Q17.2656,123.372 18.5781,121.7158 Q19.9063,120.0595 22.4063,120.0595 Q23.1094,120.0595 23.75,120.2158 Q24.4063,120.372 24.9688,120.6689 L24.9688,123.3877 Q24.3438,122.8095 23.75,122.5439 Q23.1563,122.2627 22.5313,122.2627 Q21.1875,122.2627 20.5,123.3408 Q19.8125,124.4033 19.8125,126.497 Q19.8125,128.5908 20.5,129.6689 Q21.1875,130.7314 22.5313,130.7314 Q23.1563,130.7314 23.75,130.4658 Q24.3438,130.1845 24.9688,129.6064 L24.9688,132.3252 Z " fill="#000000"/><text fill="#D9B8FF" font-family="Helvetica" font-size="17" lengthAdjust="spacing" textLength="189" x="41" y="132.5698">aws_ec2_nat_gateway</text></g><!--class aws_ec2_network_interface--><g id="elem_aws_ec2_network_interface"><rect codeLine="24" fill="#3D176E" height="39.7891" id="aws_ec2_network_interface" rx="2.5" ry="2.5" style="stroke:#000D19;stroke-width:0.5;" width="275" x="198" y="406.16"/><ellipse cx="213" cy="426.0545" fill="#ADD1B2" rx="11" ry="11" style="stroke:#181818;stroke-width:1.0;"/><path d="M215.9688,431.6952 Q215.3906,431.992 214.75,432.1327 Q214.1094,432.2889 213.4063,432.2889 Q210.9063,432.2889 209.5781,430.6483 Q208.2656,428.992 208.2656,425.867 Q208.2656,422.742 209.5781,421.0858 Q210.9063,419.4295 213.4063,419.4295 Q214.1094,419.4295 214.75,419.5858 Q215.4063,419.742 215.9688,420.0389 L215.9688,422.7577 Q215.3438,422.1795 214.75,421.9139 Q214.1563,421.6327 213.5313,421.6327 Q212.1875,421.6327 211.5,422.7108 Q210.8125,423.7733 210.8125,425.867 Q210.8125,427.9608 211.5,429.0389 Q212.1875,430.1014 213.5313,430.1014 Q214.1563,430.1014 214.75,429.8358 Q215.3438,429.5545 215.9688,428.9764 L215.9688,431.6952 Z " fill="#000000"/><text fill="#D9B8FF" font-family="Helvetica" font-size="17" lengthAdjust="spacing" textLength="233" x="232" y="431.9398">aws_ec2_network_interface</text></g><!--class aws_ec2_subnet--><g id="elem_aws_ec2_subnet"><rect codeLine="26" fill="#3D176E" height="39.7891" id="aws_ec2_subnet" rx="2.5" ry="2.5" style="stroke:#000D19;stroke-width:0.5;" width="179" x="175" y="306.37"/><ellipse cx="190" cy="326.2645" fill="#ADD1B2" rx="11" ry="11" style="stroke:#181818;stroke-width:1.0;"/><path d="M192.9688,331.9052 Q192.3906,332.202 191.75,332.3427 Q191.1094,332.4989 190.4063,332.4989 Q187.9063,332.4989 186.5781,330.8583 Q185.2656,329.202 185.2656,326.077 Q185.2656,322.952 186.5781,321.2958 Q187.9063,319.6395 190.4063,319.6395 Q191.1094,319.6395 191.75,319.7958 Q192.4063,319.952 192.9688,320.2489 L192.9688,322.9677 Q192.3438,322.3895 191.75,322.1239 Q191.1563,321.8427 190.5313,321.8427 Q189.1875,321.8427 188.5,322.9208 Q187.8125,323.9833 187.8125,326.077 Q187.8125,328.1708 188.5,329.2489 Q189.1875,330.3114 190.5313,330.3114 Q191.1563,330.3114 191.75,330.0458 Q192.3438,329.7645 192.9688,329.1864 L192.9688,331.9052 Z " fill="#000000"/><text fill="#D9B8FF" font-family="Helvetica" font-size="17" lengthAdjust="spacing" textLength="137" x="209" y="332.1498">aws_ec2_subnet</text></g><!--class aws_region--><g id="elem_aws_region"><rect codeLine="28" fill="#3D176E" height="39.7891" id="aws_region" rx="2.5" ry="2.5" style="stroke:#000D19;stroke-width:0.5;" width="137" x="263" y="7"/><ellipse cx="278" cy="26.8945" fill="#ADD1B2" rx="11" ry="11" style="stroke:#181818;stroke-width:1.0;"/><path d="M280.9688,32.5352 Q280.3906,32.832 279.75,32.9727 Q279.1094,33.1289 278.4063,33.1289 Q275.9063,33.1289 274.5781,31.4883 Q273.2656,29.832 273.2656,26.707 Q273.2656,23.582 274.5781,21.9258 Q275.9063,20.2695 278.4063,20.2695 Q279.1094,20.2695 279.75,20.4258 Q280.4063,20.582 280.9688,20.8789 L280.9688,23.5977 Q280.3438,23.0195 279.75,22.7539 Q279.1563,22.4727 278.5313,22.4727 Q277.1875,22.4727 276.5,23.5508 Q275.8125,24.6133 275.8125,26.707 Q275.8125,28.8008 276.5,29.8789 Q277.1875,30.9414 278.5313,30.9414 Q279.1563,30.9414 279.75,30.6758 Q280.3438,30.3945 280.9688,29.8164 L280.9688,32.5352 Z " fill="#000000"/><text fill="#D9B8FF" font-family="Helvetica" font-size="17" lengthAdjust="spacing" textLength="95" x="297" y="32.7798">aws_region</text></g><!--class aws_vpc--><g id="elem_aws_vpc"><rect codeLine="30" fill="#3D176E" height="39.7891" id="aws_vpc" rx="2.5" ry="2.5" style="stroke:#000D19;stroke-width:0.5;" width="112" x="317.5" y="206.58"/><ellipse cx="332.5" cy="226.4745" fill="#ADD1B2" rx="11" ry="11" style="stroke:#181818;stroke-width:1.0;"/><path d="M335.4688,232.1152 Q334.8906,232.412 334.25,232.5527 Q333.6094,232.7089 332.9063,232.7089 Q330.4063,232.7089 329.0781,231.0683 Q327.7656,229.412 327.7656,226.287 Q327.7656,223.162 329.0781,221.5058 Q330.4063,219.8495 332.9063,219.8495 Q333.6094,219.8495 334.25,220.0058 Q334.9063,220.162 335.4688,220.4589 L335.4688,223.1777 Q334.8438,222.5995 334.25,222.3339 Q333.6563,222.0527 333.0313,222.0527 Q331.6875,222.0527 331,223.1308 Q330.3125,224.1933 330.3125,226.287 Q330.3125,228.3808 331,229.4589 Q331.6875,230.5214 333.0313,230.5214 Q333.6563,230.5214 334.25,230.2558 Q334.8438,229.9745 335.4688,229.3964 L335.4688,232.1152 Z " fill="#000000"/><text fill="#D9B8FF" font-family="Helvetica" font-size="17" lengthAdjust="spacing" textLength="70" x="351.5" y="232.3598">aws_vpc</text></g><!--link aws_ec2_nat_gateway to aws_ec2_network_interface--><g id="link_aws_ec2_nat_gateway_aws_ec2_network_interface"><path codeLine="32" d="M119.93,146.97 C115.54,188.16 111.1,285.9 157.5,346.16 C178.75,373.76 211.73,391.92 243.56,403.77 " fill="none" id="aws_ec2_nat_gateway-to-aws_ec2_network_interface" style="stroke:#1A83AF;stroke-width:2.0;"/><polygon fill="#1A83AF" points="248.07,405.77,240.9672,398.9473,243.3681,404.0693,238.2461,406.4703,248.07,405.77" style="stroke:#1A83AF;stroke-width:2.0;"/></g><!--link aws_ec2_nat_gateway to aws_ec2_subnet--><g id="link_aws_ec2_nat_gateway_aws_ec2_subnet"><path codeLine="33" d="M136.37,146.99 C162.46,183.29 218.75,261.61 247.24,301.25 " fill="none" id="aws_ec2_nat_gateway-to-aws_ec2_subnet" style="stroke:#1A83AF;stroke-width:2.0;"/><polygon fill="#1A83AF" points="250.57,304.88,248.5681,295.2367,247.653,300.8191,242.0707,299.9039,250.57,304.88" style="stroke:#1A83AF;stroke-width:2.0;"/></g><!--link aws_ec2_nat_gateway to aws_vpc--><g id="link_aws_ec2_nat_gateway_aws_vpc"><path codeLine="34" d="M172.09,147.01 C214.29,163.45 274.83,187.04 318.5,204.05 " fill="none" id="aws_ec2_nat_gateway-to-aws_vpc" style="stroke:#1A83AF;stroke-width:2.0;"/><polygon fill="#1A83AF" points="323.01,206.2,316.0759,199.2059,318.3511,204.385,313.1719,206.6602,323.01,206.2" style="stroke:#1A83AF;stroke-width:2.0;"/></g><!--link aws_ec2_subnet to aws_ec2_network_interface--><g id="link_aws_ec2_subnet_aws_ec2_network_interface"><path codeLine="35" d="M278.53,346.59 C289.9,362.26 306,384.42 318.18,401.2 " fill="none" id="aws_ec2_subnet-to-aws_ec2_network_interface" style="stroke:#1A83AF;stroke-width:2.0;"/><polygon fill="#1A83AF" points="321.5,404.78,319.4374,395.1496,318.5574,400.7376,312.9694,399.8576,321.5,404.78" style="stroke:#1A83AF;stroke-width:2.0;"/></g><!--link aws_region to aws_ec2_nat_gateway--><g id="link_aws_region_aws_ec2_nat_gateway"><path codeLine="36" d="M290.21,47.22 C255.29,63.56 205.28,86.96 168.96,103.95 " fill="none" id="aws_region-to-aws_ec2_nat_gateway" style="stroke:#1A83AF;stroke-width:2.0;"/><polygon fill="#1A83AF" points="164.71,106.41,174.5567,106.2016,169.2351,104.2831,171.1536,98.9615,164.71,106.41" style="stroke:#1A83AF;stroke-width:2.0;"/></g><!--link aws_region to aws_ec2_network_interface--><g id="link_aws_region_aws_ec2_network_interface"><path codeLine="37" d="M349.5,47.12 C376.98,77.92 428.23,141.51 447.5,206.58 C469.98,282.49 400.89,363.25 361.26,401.87 " fill="none" id="aws_region-to-aws_ec2_network_interface" style="stroke:#1A83AF;stroke-width:2.0;"/><polygon fill="#1A83AF" points="358.05,404.92,367.3051,401.5522,361.6492,401.4493,361.7521,395.7934,358.05,404.92" style="stroke:#1A83AF;stroke-width:2.0;"/></g><!--link aws_region to aws_ec2_subnet--><g id="link_aws_region_aws_ec2_subnet"><path codeLine="38" d="M327.21,46.95 C315.54,98.76 283.22,242.17 270.12,300.31 " fill="none" id="aws_region-to-aws_ec2_subnet" style="stroke:#1A83AF;stroke-width:2.0;"/><polygon fill="#1A83AF" points="268.84,304.99,274.7241,297.0921,269.9413,300.1128,266.9206,295.33,268.84,304.99" style="stroke:#1A83AF;stroke-width:2.0;"/></g><!--link aws_region to aws_vpc--><g id="link_aws_region_aws_vpc"><path codeLine="39" d="M335.6,47.2 C343.26,83.21 359.7,160.55 368.19,200.48 " fill="none" id="aws_region-to-aws_vpc" style="stroke:#1A83AF;stroke-width:2.0;"/><polygon fill="#1A83AF" points="369.38,205.09,371.4131,195.4533,368.3363,200.2002,363.5894,197.1233,369.38,205.09" style="stroke:#1A83AF;stroke-width:2.0;"/></g><!--link aws_vpc to aws_ec2_network_interface--><g id="link_aws_vpc_aws_ec2_network_interface"><path codeLine="40" d="M375.56,246.67 C377.56,270.38 379.28,311.79 371.5,346.16 C367.14,365.42 357.8,385.66 349.72,400.81 " fill="none" id="aws_vpc-to-aws_ec2_network_interface" style="stroke:#1A83AF;stroke-width:2.0;"/><polygon fill="#1A83AF" points="347.04,404.75,354.8462,398.7448,349.4233,400.3545,347.8135,394.9316,347.04,404.75" style="stroke:#1A83AF;stroke-width:2.0;"/></g><!--link aws_vpc to aws_ec2_subnet--><g id="link_aws_vpc_aws_ec2_subnet"><path codeLine="41" d="M351.97,246.8 C334.2,262.74 308.95,285.39 290.14,302.26 " fill="none" id="aws_vpc-to-aws_ec2_subnet" style="stroke:#1A83AF;stroke-width:2.0;"/><polygon fill="#1A83AF" points="286.99,304.99,296.3613,301.9604,290.7128,301.6523,291.0209,296.0038,286.99,304.99" style="stroke:#1A83AF;stroke-width:2.0;"/></g><!--SRC=[bP3DRi8m48JlF8KbpaY4g0KkbL8ar5vGLNghgcWJhuELn8viGqIhldiJ0gth9FnSTxxTcTaDfqWmByoUv9X7gFH0frmKe20dWLAoNCXCAZ9a39W_TSMb5EOYi88SoHDcEpGy1fTus_0u5QWrcLZI8yHfekHMqEQyKI1q9Q4m5hN8GEl06CMZhK4h39r7CyPSqZqwzAatlSSM9XL5TKJ6up7rvYvoqUfixrzYpJ-HUFRJLj9WAsRBua2TJLaJLiXMqPFUc_45AEKY8NVMxBN9f0IgV_Fr1gWiQvf1fcqRRL2XDFi25wrME9zHDks4d_lWkFuSWLA764z20IPCm609U_8r-7PLDALKQSX5TPT1Z1sCtaOLvWWA4ow5CzmLyM7IvJrw7th1p0-M7wE7VllhLvjKr_5Lhe7JveOunwhT6t-sbzcRhriT-x1JjVhrDxZsuetb3m00]--></g></svg>

<svg xmlns="http://www.w3.org/2000/svg" width="480" height="451" preserveAspectRatio="none" style="width:480px;height:451px"><rect width="231" height="39.789" x="7" y="106.79" fill="#3D176E" rx="2.5" ry="2.5" style="stroke:#000d19;stroke-width:.5"/><circle cx="22" cy="126.684" r="11" fill="#ADD1B2" style="stroke:#181818;stroke-width:1"/><path d="M24.969 132.325q-.578.297-1.219.438-.64.156-1.344.156-2.5 0-3.828-1.64-1.312-1.657-1.312-4.782t1.312-4.781q1.328-1.656 3.828-1.656.703 0 1.344.156.656.156 1.219.453v2.719q-.625-.579-1.219-.844-.594-.281-1.219-.281-1.343 0-2.031 1.078-.688 1.062-.688 3.156 0 2.094.688 3.172.688 1.062 2.031 1.062.625 0 1.219-.265.594-.281 1.219-.86v2.72Z"/><text x="41" y="132.57" fill="#D9B8FF" font-family="Helvetica" font-size="17" textLength="189">aws_ec2_nat_gateway</text><rect width="275" height="39.789" x="198" y="406.16" fill="#3D176E" rx="2.5" ry="2.5" style="stroke:#000d19;stroke-width:.5"/><circle cx="213" cy="426.055" r="11" fill="#ADD1B2" style="stroke:#181818;stroke-width:1"/><path d="M215.969 431.695q-.578.297-1.219.438-.64.156-1.344.156-2.5 0-3.828-1.64-1.312-1.657-1.312-4.782t1.312-4.781q1.328-1.656 3.828-1.656.703 0 1.344.156.656.156 1.219.453v2.719q-.625-.578-1.219-.844-.594-.281-1.219-.281-1.344 0-2.031 1.078-.688 1.062-.688 3.156 0 2.094.688 3.172.688 1.062 2.031 1.062.625 0 1.219-.265.594-.281 1.219-.86v2.72Z"/><text x="232" y="431.94" fill="#D9B8FF" font-family="Helvetica" font-size="17" textLength="233">aws_ec2_network_interface</text><rect width="179" height="39.789" x="175" y="306.37" fill="#3D176E" rx="2.5" ry="2.5" style="stroke:#000d19;stroke-width:.5"/><circle cx="190" cy="326.264" r="11" fill="#ADD1B2" style="stroke:#181818;stroke-width:1"/><path d="M192.969 331.905q-.578.297-1.219.438-.64.156-1.344.156-2.5 0-3.828-1.64-1.312-1.657-1.312-4.782t1.312-4.781q1.328-1.656 3.828-1.656.703 0 1.344.156.656.156 1.219.453v2.719q-.625-.579-1.219-.844-.594-.281-1.219-.281-1.344 0-2.031 1.078-.688 1.062-.688 3.156 0 2.094.688 3.172.688 1.062 2.031 1.062.625 0 1.219-.265.594-.281 1.219-.86v2.72Z"/><text x="209" y="332.15" fill="#D9B8FF" font-family="Helvetica" font-size="17" textLength="137">aws_ec2_subnet</text><rect width="137" height="39.789" x="263" y="7" fill="#3D176E" rx="2.5" ry="2.5" style="stroke:#000d19;stroke-width:.5"/><circle cx="278" cy="26.895" r="11" fill="#ADD1B2" style="stroke:#181818;stroke-width:1"/><path d="M280.969 32.535q-.578.297-1.219.438-.64.156-1.344.156-2.5 0-3.828-1.64-1.312-1.657-1.312-4.782t1.312-4.781q1.328-1.656 3.828-1.656.703 0 1.344.156.656.156 1.219.453v2.719q-.625-.578-1.219-.844-.594-.281-1.219-.281-1.344 0-2.031 1.078-.688 1.062-.688 3.156 0 2.094.688 3.172.688 1.062 2.031 1.062.625 0 1.219-.265.594-.281 1.219-.86v2.72Z"/><text x="297" y="32.78" fill="#D9B8FF" font-family="Helvetica" font-size="17" textLength="95">aws_region</text><rect width="112" height="39.789" x="317.5" y="206.58" fill="#3D176E" rx="2.5" ry="2.5" style="stroke:#000d19;stroke-width:.5"/><circle cx="332.5" cy="226.475" r="11" fill="#ADD1B2" style="stroke:#181818;stroke-width:1"/><path d="M335.469 232.115q-.578.297-1.219.438-.64.156-1.344.156-2.5 0-3.828-1.64-1.312-1.657-1.312-4.782t1.312-4.781q1.328-1.656 3.828-1.656.703 0 1.344.156.656.156 1.219.453v2.719q-.625-.578-1.219-.844-.594-.281-1.219-.281-1.344 0-2.031 1.078-.688 1.062-.688 3.156 0 2.094.688 3.172.688 1.062 2.031 1.062.625 0 1.219-.265.594-.281 1.219-.86v2.72Z"/><text x="351.5" y="232.36" fill="#D9B8FF" font-family="Helvetica" font-size="17" textLength="70">aws_vpc</text><path fill="none" d="M119.93 146.97c-4.39 41.19-8.83 138.93 37.57 199.19 21.25 27.6 54.23 45.76 86.06 57.61" style="stroke:#1a83af;stroke-width:2"/><path fill="#1A83AF" d="m248.07 405.77-7.103-6.823 2.401 5.122-5.122 2.401 9.824-.7z" style="stroke:#1a83af;stroke-width:2"/><path fill="none" d="m136.37 146.99 110.87 154.26" style="stroke:#1a83af;stroke-width:2"/><path fill="#1A83AF" d="m250.57 304.88-2.002-9.643-.915 5.582-5.582-.915 8.499 4.976z" style="stroke:#1a83af;stroke-width:2"/><path fill="none" d="M172.09 147.01c42.2 16.44 102.74 40.03 146.41 57.04" style="stroke:#1a83af;stroke-width:2"/><path fill="#1A83AF" d="m323.01 206.2-6.934-6.994 2.275 5.179-5.18 2.275 9.839-.46z" style="stroke:#1a83af;stroke-width:2"/><path fill="none" d="M278.53 346.59c11.37 15.67 27.47 37.83 39.65 54.61" style="stroke:#1a83af;stroke-width:2"/><path fill="#1A83AF" d="m321.5 404.78-2.063-9.63-.88 5.588-5.588-.88 8.531 4.922z" style="stroke:#1a83af;stroke-width:2"/><path fill="none" d="M290.21 47.22c-34.92 16.34-84.93 39.74-121.25 56.73" style="stroke:#1a83af;stroke-width:2"/><path fill="#1A83AF" d="m164.71 106.41 9.847-.208-5.322-1.919 1.919-5.322-6.444 7.449z" style="stroke:#1a83af;stroke-width:2"/><path fill="none" d="M349.5 47.12c27.48 30.8 78.73 94.39 98 159.46 22.48 75.91-46.61 156.67-86.24 195.29" style="stroke:#1a83af;stroke-width:2"/><path fill="#1A83AF" d="m358.05 404.92 9.255-3.368-5.656-.103.103-5.656-3.702 9.127z" style="stroke:#1a83af;stroke-width:2"/><path fill="none" d="M327.21 46.95c-11.67 51.81-43.99 195.22-57.09 253.36" style="stroke:#1a83af;stroke-width:2"/><path fill="#1A83AF" d="m268.84 304.99 5.884-7.898-4.783 3.02-3.02-4.782 1.919 9.66z" style="stroke:#1a83af;stroke-width:2"/><path fill="none" d="M335.6 47.2c7.66 36.01 24.1 113.35 32.59 153.28" style="stroke:#1a83af;stroke-width:2"/><path fill="#1A83AF" d="m369.38 205.09 2.033-9.637-3.077 4.747-4.747-3.077 5.791 7.967z" style="stroke:#1a83af;stroke-width:2"/><path fill="none" d="M375.56 246.67c2 23.71 3.72 65.12-4.06 99.49-4.36 19.26-13.7 39.5-21.78 54.65" style="stroke:#1a83af;stroke-width:2"/><path fill="#1A83AF" d="m347.04 404.75 7.806-6.005-5.423 1.61-1.61-5.423-.773 9.818z" style="stroke:#1a83af;stroke-width:2"/><path fill="none" d="M351.97 246.8c-17.77 15.94-43.02 38.59-61.83 55.46" style="stroke:#1a83af;stroke-width:2"/><path fill="#1A83AF" d="m286.99 304.99 9.371-3.03-5.648-.308.308-5.648-4.031 8.986z" style="stroke:#1a83af;stroke-width:2"/></svg>
